icons/rss3-vsl.svg

<svg width="100" height="101" viewBox="0 0 100 101" fill="none" xmlns="http://www.w3.org/2000/svg">
<g clip-path="url(#clip0_1_2309)">
<path d="M94.5469 0H5.23626C2.34435 0 0 2.34057 0 5.22781V95.7722C0 98.6594 2.34435 101 5.23626 101H94.5469C97.4388 101 99.7831 98.6594 99.7831 95.7722V5.22781C99.7831 2.34057 97.4388 0 94.5469 0Z" fill="#1477F9"/>
<path d="M67.4927 82.4494V76.6137C67.4927 72.2977 70.9937 68.7922 75.3268 68.7922H81.4357C82.3896 68.7922 83.1609 68.0222 83.1609 67.0699V32.8764V18.7937C83.1609 17.7097 82.278 16.8384 81.2023 16.8384H68.061C66.9955 16.8384 66.1227 17.6995 66.1227 18.7735V36.4325V60.2616C66.1227 64.5776 62.6218 68.083 58.2887 68.083H50.0487H49.8964H49.7442H41.5042C37.1813 68.083 33.6803 64.5877 33.6803 60.2717V36.4427V18.7836C33.6803 17.7198 32.8177 16.8485 31.7421 16.8485H18.6007C17.5149 16.8485 16.6422 17.7299 16.6422 18.8039V32.8865V67.08C16.6422 68.0324 17.4134 68.8024 18.3673 68.8024H24.4763C28.7992 68.8024 32.3103 72.2977 32.3103 76.6238V82.4595C32.3103 83.4119 33.0816 84.1818 34.0355 84.1818H49.9167H65.798C66.7519 84.1818 67.5231 83.4119 67.5231 82.4595L67.4927 82.4494Z" fill="white"/>
</g>
<defs>
<clipPath id="clip0_1_2309">
<rect width="99.7831" height="101" fill="white"/>
</clipPath>
</defs>
</svg>

<svg xmlns="http://www.w3.org/2000/svg" fill="none" viewBox="0 0 100 101">
  <g clip-path="url(#rss3-vsl_svg__a)">
    <path fill="#1477F9" d="M94.547 0H5.237A5.23 5.23 0 0 0 0 5.228v90.544A5.23 5.23 0 0 0 5.236 101h89.31a5.23 5.23 0 0 0 5.237-5.228V5.228A5.23 5.23 0 0 0 94.547 0"/>
    <path fill="#fff" d="M67.493 82.45v-5.836c0-4.316 3.5-7.822 7.834-7.822h6.109c.954 0 1.725-.77 1.725-1.722V18.794a1.96 1.96 0 0 0-1.959-1.956H68.061a1.937 1.937 0 0 0-1.938 1.935v41.489c0 4.316-3.501 7.821-7.834 7.821H41.504c-4.323 0-7.824-3.495-7.824-7.811V18.784a1.936 1.936 0 0 0-1.938-1.935H18.601a1.96 1.96 0 0 0-1.959 1.955V67.08c0 .952.771 1.722 1.725 1.722h6.11c4.322 0 7.833 3.496 7.833 7.822v5.836c0 .952.772 1.722 1.725 1.722h31.763c.954 0 1.725-.77 1.725-1.722z"/>
  </g>
  <defs>
    <clipPath id="rss3-vsl_svg__a">
      <path fill="#fff" d="M0 0h99.783v101H0z"/>
    </clipPath>
  </defs>
</svg>
